img/temp-min.svg

<svg width="44" height="44" viewBox="0 0 44 44" xmlns="http://www.w3.org/2000/svg"><title>noun_121291_cc</title><path d="M42.715 21h-3.961l2.668-2.668a.999.999 0 1 0-1.414-1.414L35.926 21h-5.588a8.42 8.42 0 0 0-.254-1.266l3.4-1.408a1 1 0 0 0-.766-1.848l-3.399 1.408a8.422 8.422 0 0 0-.72-1.071l3.955-3.955h5.773a1 1 0 0 0 0-2h-3.773l2.801-2.801a.999.999 0 1 0-1.414-1.414L33.14 9.446V5.673a1 1 0 0 0-2 0v5.773l-3.955 3.955a8.445 8.445 0 0 0-1.07-.72l1.408-3.399a1.001 1.001 0 0 0-1.848-.766l-1.408 3.4A8.286 8.286 0 0 0 23 13.662V8.074l4.082-4.082a.999.999 0 1 0-1.414-1.414L23 5.246V1.285a1 1 0 0 0-2 0v3.961l-2.668-2.668a.999.999 0 1 0-1.414 1.414L21 8.074v5.588a8.42 8.42 0 0 0-1.266.254l-1.408-3.4a1 1 0 1 0-1.848.766l1.408 3.399a8.422 8.422 0 0 0-1.071.72l-3.955-3.955V5.673a1 1 0 0 0-2 0v3.773L8.059 6.645a.999.999 0 1 0-1.414 1.414l2.801 2.801H5.673a1 1 0 0 0 0 2h5.773l3.955 3.955a8.282 8.282 0 0 0-.72 1.071l-3.399-1.408a1 1 0 1 0-.766 1.848l3.4 1.408A8.42 8.42 0 0 0 13.662 21H8.074l-4.082-4.082a.999.999 0 1 0-1.414 1.414L5.246 21H1.285a1 1 0 0 0 0 2h3.961l-2.668 2.668a.999.999 0 1 0 1.414 1.414L8.074 23h5.589c.052.433.139.855.254 1.266l-3.4 1.408a1 1 0 0 0 .765 1.848l3.399-1.408c.212.376.454.733.72 1.071l-3.955 3.955H5.673a1 1 0 0 0 0 2h3.773l-2.801 2.801a.999.999 0 1 0 1.414 1.414l2.801-2.801v3.773a1 1 0 0 0 2 0v-5.773l3.955-3.955c.338.266.695.508 1.071.72l-1.408 3.399a1.001 1.001 0 0 0 .923 1.384 1 1 0 0 0 .924-.618l1.408-3.4a8.42 8.42 0 0 0 1.266.254v5.588l-4.082 4.082a.999.999 0 1 0 1.414 1.414L21 38.753v3.961a1 1 0 0 0 2 0v-3.961l2.668 2.668a.997.997 0 0 0 1.414 0 .999.999 0 0 0 0-1.414L23 35.925v-5.588a8.395 8.395 0 0 0 1.266-.254l1.409 3.4a1.001 1.001 0 0 0 1.306.541 1 1 0 0 0 .541-1.307l-1.408-3.399a8.34 8.34 0 0 0 1.07-.72l3.955 3.955v5.773a1 1 0 0 0 2 0v-3.773l2.801 2.801a.997.997 0 0 0 1.414 0 .999.999 0 0 0 0-1.414l-2.801-2.801h3.773a1 1 0 0 0 0-2h-5.773l-3.955-3.955c.266-.337.507-.694.72-1.071l3.399 1.408a.995.995 0 0 0 1.306-.541 1.001 1.001 0 0 0-.541-1.307l-3.4-1.408a8.42 8.42 0 0 0 .254-1.266h5.589l4.082 4.082a.997.997 0 0 0 1.414 0 .999.999 0 0 0 0-1.414L38.754 23h3.961a1 1 0 0 0 0-2zM22 28.402a6.41 6.41 0 0 1-6.402-6.403A6.41 6.41 0 0 1 22 15.597a6.41 6.41 0 0 1 6.402 6.402A6.41 6.41 0 0 1 22 28.402z"/></svg>

<?xml version="1.0" encoding="UTF-8"?>
<svg width="44px" height="44px" viewBox="0 0 44 44" version="1.1" xmlns="http://www.w3.org/2000/svg" xmlns:xlink="http://www.w3.org/1999/xlink">
    <!-- Generator: Sketch 45.1 (43504) - http://www.bohemiancoding.com/sketch -->
    <title>noun_121291_cc</title>
    <desc>Created with Sketch.</desc>
    <defs></defs>
    <g id="Page-1" stroke="none" stroke-width="1" fill="none" fill-rule="evenodd">
        <g id="noun_121291_cc" fill-rule="nonzero" fill="#000000">
            <path d="M42.715,21 L38.754,21 L41.422,18.332 C41.813,17.941 41.813,17.309 41.422,16.918 C41.031,16.527 40.399,16.527 40.008,16.918 L35.926,21 L30.338,21 C30.286,20.567 30.199,20.145 30.084,19.734 L33.484,18.326 C33.994,18.115 34.236,17.53 34.025,17.019 C33.813,16.509 33.231,16.267 32.718,16.478 L29.319,17.886 C29.107,17.51 28.865,17.153 28.599,16.815 L32.554,12.86 L38.327,12.86 C38.879,12.86 39.327,12.412 39.327,11.86 C39.327,11.308 38.879,10.86 38.327,10.86 L34.554,10.86 L37.355,8.059 C37.746,7.668 37.746,7.036 37.355,6.645 C36.964,6.254 36.332,6.254 35.941,6.645 L33.14,9.446 L33.14,5.673 C33.14,5.121 32.692,4.673 32.14,4.673 C31.588,4.673 31.14,5.121 31.14,5.673 L31.14,11.446 L27.185,15.401 C26.848,15.135 26.491,14.894 26.115,14.681 L27.523,11.282 C27.734,10.772 27.492,10.187 26.982,9.975 C26.47,9.764 25.887,10.006 25.675,10.516 L24.267,13.916 C23.856,13.801 23.434,13.713 23,13.662 L23,8.074 L27.082,3.992 C27.473,3.601 27.473,2.969 27.082,2.578 C26.691,2.187 26.059,2.187 25.668,2.578 L23,5.246 L23,1.285 C23,0.733 22.552,0.285 22,0.285 C21.448,0.285 21,0.733 21,1.285 L21,5.246 L18.332,2.578 C17.941,2.187 17.309,2.187 16.918,2.578 C16.527,2.969 16.527,3.601 16.918,3.992 L21,8.074 L21,13.662 C20.567,13.714 20.145,13.801 19.734,13.916 L18.326,10.516 C18.114,10.006 17.532,9.764 17.019,9.975 C16.509,10.186 16.267,10.771 16.478,11.282 L17.886,14.681 C17.51,14.893 17.153,15.135 16.815,15.401 L12.86,11.446 L12.86,5.673 C12.86,5.121 12.412,4.673 11.86,4.673 C11.308,4.673 10.86,5.121 10.86,5.673 L10.86,9.446 L8.059,6.645 C7.668,6.254 7.036,6.254 6.645,6.645 C6.254,7.036 6.254,7.668 6.645,8.059 L9.446,10.86 L5.673,10.86 C5.121,10.86 4.673,11.308 4.673,11.86 C4.673,12.412 5.121,12.86 5.673,12.86 L11.446,12.86 L15.401,16.815 C15.135,17.152 14.893,17.509 14.681,17.886 L11.282,16.478 C10.769,16.267 10.186,16.509 9.975,17.019 C9.764,17.529 10.006,18.114 10.516,18.326 L13.916,19.734 C13.801,20.145 13.714,20.567 13.662,21 L8.074,21 L3.992,16.918 C3.601,16.527 2.969,16.527 2.578,16.918 C2.187,17.309 2.187,17.941 2.578,18.332 L5.246,21 L1.285,21 C0.733,21 0.285,21.448 0.285,22 C0.285,22.552 0.733,23 1.285,23 L5.246,23 L2.578,25.668 C2.187,26.059 2.187,26.691 2.578,27.082 C2.773,27.277 3.029,27.375 3.285,27.375 C3.541,27.375 3.797,27.277 3.992,27.082 L8.074,23 L13.663,23 C13.715,23.433 13.802,23.855 13.917,24.266 L10.517,25.674 C10.007,25.885 9.765,26.47 9.976,26.981 C10.136,27.366 10.508,27.599 10.9,27.599 C11.027,27.599 11.157,27.574 11.282,27.522 L14.681,26.114 C14.893,26.49 15.135,26.847 15.401,27.185 L11.446,31.14 L5.673,31.14 C5.121,31.14 4.673,31.588 4.673,32.14 C4.673,32.692 5.121,33.14 5.673,33.14 L9.446,33.14 L6.645,35.941 C6.254,36.332 6.254,36.964 6.645,37.355 C6.84,37.55 7.096,37.648 7.352,37.648 C7.608,37.648 7.864,37.55 8.059,37.355 L10.86,34.554 L10.86,38.327 C10.86,38.879 11.308,39.327 11.86,39.327 C12.412,39.327 12.86,38.879 12.86,38.327 L12.86,32.554 L16.815,28.599 C17.153,28.865 17.51,29.107 17.886,29.319 L16.478,32.718 C16.267,33.228 16.509,33.813 17.019,34.025 C17.144,34.077 17.274,34.102 17.401,34.102 C17.794,34.102 18.166,33.869 18.325,33.484 L19.733,30.084 C20.144,30.199 20.566,30.286 20.999,30.338 L20.999,35.926 L16.917,40.008 C16.526,40.399 16.526,41.031 16.917,41.422 C17.112,41.617 17.368,41.715 17.624,41.715 C17.88,41.715 18.136,41.617 18.331,41.422 L21,38.753 L21,42.714 C21,43.266 21.448,43.714 22,43.714 C22.552,43.714 23,43.266 23,42.714 L23,38.753 L25.668,41.421 C25.863,41.616 26.119,41.714 26.375,41.714 C26.631,41.714 26.887,41.616 27.082,41.421 C27.473,41.03 27.473,40.398 27.082,40.007 L23,35.925 L23,30.337 C23.434,30.285 23.855,30.198 24.266,30.083 L25.675,33.483 C25.835,33.868 26.207,34.101 26.599,34.101 C26.726,34.101 26.856,34.076 26.981,34.024 C27.491,33.813 27.733,33.228 27.522,32.717 L26.114,29.318 C26.49,29.106 26.847,28.864 27.184,28.598 L31.139,32.553 L31.139,38.326 C31.139,38.878 31.587,39.326 32.139,39.326 C32.691,39.326 33.139,38.878 33.139,38.326 L33.139,34.553 L35.94,37.354 C36.135,37.549 36.391,37.647 36.647,37.647 C36.903,37.647 37.159,37.549 37.354,37.354 C37.745,36.963 37.745,36.331 37.354,35.94 L34.553,33.139 L38.326,33.139 C38.878,33.139 39.326,32.691 39.326,32.139 C39.326,31.587 38.878,31.139 38.326,31.139 L32.553,31.139 L28.598,27.184 C28.864,26.847 29.105,26.49 29.318,26.113 L32.717,27.521 C32.842,27.573 32.972,27.598 33.099,27.598 C33.492,27.598 33.864,27.365 34.023,26.98 C34.234,26.47 33.992,25.885 33.482,25.673 L30.082,24.265 C30.197,23.854 30.284,23.432 30.336,22.999 L35.925,22.999 L40.007,27.081 C40.202,27.276 40.458,27.374 40.714,27.374 C40.97,27.374 41.226,27.276 41.421,27.081 C41.812,26.69 41.812,26.058 41.421,25.667 L38.754,23 L42.715,23 C43.267,23 43.715,22.552 43.715,22 C43.715,21.448 43.267,21 42.715,21 Z M22,28.402 C18.47,28.402 15.598,25.53 15.598,21.999 C15.598,18.469 18.47,15.597 22,15.597 C25.53,15.597 28.402,18.469 28.402,21.999 C28.402,25.53 25.53,28.402 22,28.402 Z" id="Shape"></path>
        </g>
    </g>
</svg>
